X:4
T:Ed's Waltz
C:Mike Mahar
L:1/8
Q:1/4=180
M:3/4
K:G
D2 | "G"G2 F2 G2 | D4 G2 | "C"A2 B2 c2 | E4 E2 | "D"A2 B2 c2 | F2 E2 D2 | D2 E2 D2 |  "G"B,4 D2 |
G2 F2 G2 | D4 G2 | "C"A2 B2 c2 | E4 E2 | "D"A2 B2 c2 | F2 E2 D2 | c2 B2 F2 | "G"G4 D2 |
G3F G2 | D4 G2 | "C"A3B c2 | E4 E2 | "D"A3B c2 | F3E D2 | D3E D2 | "G"B,4 D2 |
 G3F G2 | D4 G2 | "C"A3B c2 | E4 E2 | "D"A3B c2 | F3E D2 | c2 B2 F2 | "G"G4 D2 |
|: "C"E3D E2 | A4 F2 | "G"D3B, D2 | G4 G2 | "C"A3B c2 | "D"F3E D2 | D3E D2 | "G"B,4 D2 |
 "C"E3D E2 | A4 F2 | "G"D3B, D2 | G4 G2 | "C"AB c2 A2 | "D"FE D2 D2 | dc A2 F2 |1 G4 D2 :|2 G6 |]

